src/img/icon-moon.svg

<svg fill="none" height="21" viewBox="0 0 21 21" width="21" xmlns="http://www.w3.org/2000/svg" xmlns:xlink="http://www.w3.org/1999/xlink"><clipPath id="a"><path d="m.434204 0h20.1667v20.1667h-20.1667z"/></clipPath><g clip-path="url(#a)"><path d="m8.83697 5.88205c-.00017 1.16853.34771 2.31062.99928 3.28063.65155.97002 1.57725 1.72392 2.65905 2.16572 1.0819.4417 2.2707.5512 3.415.3145s2.1922-.8088 3.01-1.64349v.08399c0 4.6409-3.7619 8.4028-8.4028 8.4028-4.64083 0-8.40275-3.7619-8.40275-8.4028 0-4.64081 3.76192-8.40274 8.40275-8.40274h.0841c-.5596.54713-1.00406 1.20073-1.30712 1.92229-.30305.72156-.45861 1.49648-.45751 2.2791zm-5.04167 4.20135c-.00061 1.4999.50041 2.9569 1.42334 4.1392s2.21476 2.022 3.66993 2.3854c1.45513.3635 2.99013.2299 4.36053-.3796 1.3705-.6095 2.4978-1.6598 3.2025-2.9838-1.2542.2954-2.5631.2656-3.8024-.0868-1.2394-.3524-2.3682-1.0156-3.27932-1.9267-.91111-.9111-1.57431-2.03991-1.9267-3.27929-.35238-1.23938-.38225-2.54824-.08678-3.80241-1.07591.57319-1.97567 1.42819-2.60297 2.47348-.62729 1.04529-.95848 2.2415-.95813 3.46052z" fill="#fff"/></g></svg>

<svg width="21" height="21" viewBox="0 0 21 21" fill="none" xmlns="http://www.w3.org/2000/svg">
<g clip-path="url(#clip0_1_1134)">
<path d="M8.83697 5.88205C8.8368 7.05058 9.18468 8.19267 9.83625 9.16268C10.4878 10.1327 11.4135 10.8866 12.4953 11.3284C13.5772 11.7701 14.766 11.8796 15.9103 11.6429C17.0546 11.4062 18.1025 10.8341 18.9203 9.99941V10.0834C18.9203 14.7243 15.1584 18.4862 10.5175 18.4862C5.87667 18.4862 2.11475 14.7243 2.11475 10.0834C2.11475 5.44259 5.87667 1.68066 10.5175 1.68066H10.6016C10.042 2.22779 9.59754 2.88139 9.29448 3.60295C8.99143 4.32451 8.83587 5.09943 8.83697 5.88205ZM3.7953 10.0834C3.79469 11.5833 4.29571 13.0403 5.21864 14.2226C6.14157 15.4049 7.4334 16.2446 8.88857 16.608C10.3437 16.9715 11.8787 16.8379 13.2491 16.2284C14.6196 15.6189 15.7469 14.5686 16.4516 13.2446C15.1974 13.54 13.8885 13.5102 12.6492 13.1578C11.4098 12.8054 10.281 12.1422 9.36988 11.2311C8.45877 10.32 7.79557 9.19119 7.44318 7.95181C7.0908 6.71243 7.06093 5.40357 7.3564 4.1494C6.28049 4.72259 5.38073 5.57759 4.75343 6.62288C4.12614 7.66817 3.79495 8.86438 3.7953 10.0834Z" fill="#757693"/>
</g>
<defs>
<clipPath id="clip0_1_1134">
<rect width="20.1667" height="20.1667" fill="white" transform="translate(0.434204)"/>
</clipPath>
</defs>
</svg>
